src/components/Icon/assets/pin-off.svg

<svg width="24" height="24" viewBox="0 0 24 24" fill="none" xmlns="http://www.w3.org/2000/svg">
<path fill-rule="evenodd" clip-rule="evenodd" d="M17.3835 10.9883L15.9675 13.8463L22.2535 20.1323L20.8395 21.5463H20.8385L2.45449 3.1613L3.86849 1.7473L9.88649 7.7653L12.7445 6.3493L15.9185 3.1753L20.5565 7.8143L17.3835 10.9883ZM7.04919 9.1702L14.5622 16.6832L13.6832 18.4592L15.6602 20.4362L14.2462 21.8502L8.77119 16.3752L2.85119 22.2952L1.43719 20.8812L7.35719 14.9612L1.78219 9.3872L3.19619 7.9732L5.27319 10.0502L7.04919 9.1702Z" fill="#65676A"/>
</svg>

<svg xmlns="http://www.w3.org/2000/svg" width="24" height="24" viewBox="0 0 24 24">
    <path fill="#65676A" fill-rule="evenodd" d="M3.196 7.973l2.077 2.077 1.776-.88 7.513 7.513-.879 1.776 1.977 1.977-1.414 1.414-5.475-5.475-5.92 5.92-1.414-1.414 5.92-5.92-5.575-5.574 1.414-1.414zm.672-6.226l6.018 6.018 2.859-1.416 3.174-3.174 4.637 4.64-3.172 3.173-1.417 2.858 6.286 6.286-1.413 1.414h-.002L2.454 3.161l1.414-1.414z"/>
</svg>
